X:188
T:Julia Delaney
M:C|
L:1/8
K:Dm
dcAG F2 FD|E2 EE FEFA|dcAG FDDD|Addc defe|
dcAG F2 FD|E2 EE FEFA|dcAG F2 FD|Addc d2 de:|
|:fede  fagf|ecgc acgc|fede fagf|fedc Adde|
fede fagf|ecgc acgc|fedf edce|Addc d2 de :|
